!!!COM: Haydn, Franz Joseph
!!!OTL: String Quartet in C Major
!!!OPS: Opus 64
!!!ONM: No. 1
!!!OMD: Menuetto: Allegro ma non troppo
!!!OMV: 2
!!!SCT: H III:65
!!!SCA: Thematisch-bibliographisches Werkevererzeichnis (A. van Hoboken)
!!!YOR: Dover Edition; reprint of Eulenburg Edition
!!!ENC: Walter Hewlett
!!!CDT: 1732/3/31/-1809/5/31/
!!!CNT: Oesterreich
!!!YEC: Copyright (c) 1994, 2000 Center for Computer Assisted Research in the Humanities
!!!YEM: Rights to all derivative editions reserved.
!!!YEM: Refer to licensing agreement for further details.
!!!YEN: United States of America
**kern	**dynam	**kern	**dynam	**kern	**dynam	**kern	**dynam
*I:Violoncello	*I:Violoncello	*I:Viola	*I:Viola	*I:Violino II	*I:Violino II	*I:Violino I	*I:Violino I
*>[A,A,B,B,C,A,A,B,B,C,D,D]	*	*>[A,A,B,B,C,A,A,B,B,C,D,D]	*	*>[A,A,B,B,C,A,A,B,B,C,D,D]	*	*>[A,A,B,B,C,A,A,B,B,C,D,D]	*
*>A	*	*>A	*	*>A	*	*>A	*
*clefF4	*	*clefC3	*	*clefG2	*	*clefG2	*
*k[]	*	*k[]	*	*k[]	*	*k[]	*
*C:	*	*C:	*	*C:	*	*C:	*
*M3/4	*	*M3/4	*	*M3/4	*	*M3/4	*
! Allegretto ma non troppo	!	! Allegretto ma non troppo	!	! Allegretto ma non troppo	!	! Allegretto ma non troppo	!
4GG/	f	4r	.	4r	.	4r	.
2ryy	.	2ryy	.	2ryy	.	2ryy	.
=1	=1	=1	=1	=1	=1	=1	=1
(4C/	.	2.r	.	4r	.	4r	.
4E\)	.	.	.	4ee'\	f	4gg'\	f
4G'\	.	.	.	4ee'\	.	4gg'\	.
=2	=2	=2	=2	=2	=2	=2	=2
(4c\	.	2.r	.	[2.ee\	.	[2.gg\	.
4e\)	.	.	.	.	.	.	.
(16d\LL	.	.	.	.	.	.	.
16c\	.	.	.	.	.	.	.
16B\	.	.	.	.	.	.	.
16A\JJ)	.	.	.	.	.	.	.
=3	=3	=3	=3	=3	=3	=3	=3
4G'\	.	2.r	.	4ee\]	.	4gg\]	.
(4G\	.	.	.	4ff\	.	4aa\	.
4G#\)	.	.	.	4dd\	.	4ff\	.
=4	=4	=4	=4	=4	=4	=4	=4
(4G#\	.	2.r	.	(4dd\	.	(4ff\	.
4A\)	.	.	.	4cc\)	.	4ee\)	.
4FF'/	.	.	.	4r	.	4r	.
=5	=5	=5	=5	=5	=5	=5	=5
(4AA/	.	4r	.	4r	.	4r	.
4C#/	.	4a'\	f	4cc'\	.	4dd'\	.
4D\)	.	4f'\	.	4cc'\	.	4dd'\	.
=6	=6	=6	=6	=6	=6	=6	=6
(4F\	.	(4d\	.	[2.cc\	.	2.dd\	.
4Gn\	.	4e\	.	.	.	.	.
4A\)	.	4f#\)	.	.	.	.	.
=7	=7	=7	=7	=7	=7	=7	=7
2.G\	.	2g\	.	2cc\]	.	(8dd\L	.
.	.	.	.	.	.	8ee\	.
.	.	.	.	.	.	8ff\)	.
.	.	.	.	.	.	8aa'\	.
.	.	(16g\LL	.	4b\	.	8gg'\	.
.	.	16fn\	.	.	.	.	.
.	.	16e\	.	.	.	8b'\J	.
.	.	16f\JJ)	.	.	.	.	.
=8	=8	=8	=8	=8	=8	=8	=8
4C'/	.	4e'\	.	4cc'\	.	4cc'\	.
4c'\	.	4r	.	4r	.	4r	.
=:!!:	=:!!:	=:!!:	=:!!:	=:!!:	=:!!:	=:!!:	=:!!:
*>B	*	*>B	*	*>B	*	*>B	*
4r	.	4r	.	4r	.	8b'\L	.
.	.	.	.	.	.	8cc'\J	.
2ryy	.	2ryy	.	2ryy	.	2ryy	.
=9	=9	=9	=9	=9	=9	=9	=9
2.f\	.	[2.g\	.	2.b\	.	(8dd\L	.
.	.	.	.	.	.	8ee\	.
.	.	.	.	.	.	8ff\)	.
.	.	.	.	.	.	8aa'\	.
.	.	.	.	.	.	8gg'\	.
.	.	.	.	.	.	8b'\J	.
=10	=10	=10	=10	=10	=10	=10	=10
2.e\	.	2.g\_	.	2.cc\	.	(8cc\L	.
.	.	.	.	.	.	8dd\	.
.	.	.	.	.	.	8ee\)	.
.	.	.	.	.	.	8aa'\	.
.	.	.	.	.	.	8gg'\	.
.	.	.	.	.	.	8cc'\J	.
=11	=11	=11	=11	=11	=11	=11	=11
2.B\	.	2.g\]	.	2.dd\	.	(8dd\L	.
.	.	.	.	.	.	8ee\	.
.	.	.	.	.	.	8ff\)	.
.	.	.	.	.	.	8aa'\	.
.	.	.	.	.	.	8gg'\	.
.	.	.	.	.	.	8dd'\J	.
=12	=12	=12	=12	=12	=12	=12	=12
(4c\	.	(2g\	.	(4ee\	.	8ee'\L	.
.	.	.	.	.	.	8ff#'\	.
4B\	.	.	.	4dd\	.	8gg'\	.
.	.	.	.	.	.	8aa'\	.
4A\)	.	4a\)	.	4cc\)	.	8bb'\	.
.	.	.	.	.	.	8ccc'\J	.
=13	=13	=13	=13	=13	=13	=13	=13
8G'\L	.	2b\	.	8b'\L	.	2ddd\	.
8A'\	.	.	.	8cc'\	.	.	.
8B'\	.	.	.	8dd'\	.	.	.
8c'\	.	.	.	8ee'\	.	.	.
8d'\	.	(8a\L	.	8ff#'\	.	(8ccc\L	.
8e'\J	.	8g\J)	.	8gg'\J	.	8bb\J)	.
=14	=14	=14	=14	=14	=14	=14	=14
(2c\	.	(4e\	.	(4gg\	.	4aa'\	.
.	.	4f#\	.	4ff#\	.	4aa'\	.
4c#\)	.	4g\)	.	4ee\)	.	4aa'\	.
=15	=15	=15	=15	=15	=15	=15	=15
2d\	.	(4g\	.	(2dd\	.	(4aa\	.
.	.	4f#\	.	.	.	4bb\)	.
4D\	.	4a\)	.	4cc\)	.	4ff#\	.
=16	=16	=16	=16	=16	=16	=16	=16
4G'\	.	4g\	.	4b\	.	4gg\	.
4GG'/	.	4r	.	4r	.	4r	.
4r	.	4G'/	p	4B'/	p	(4gg\	p
=17	=17	=17	=17	=17	=17	=17	=17
2.r	.	(4B/	.	(4d/	.	4b\)	.
.	.	4d\)	.	4fn/)	.	4r	.
.	.	4G'/	.	4B'/	.	(4gg\	.
=18	=18	=18	=18	=18	=18	=18	=18
2.r	.	(4c\	.	(4e/	.	4cc\)	.
.	.	4e\)	.	4g/)	.	4r	.
.	.	4r	.	4g'/	.	4gg'\	.
=19	=19	=19	=19	=19	=19	=19	=19
4r	.	4r	.	(8f#/L	.	(8ff#\L	.
.	.	.	.	8g/	.	8gg\	.
4B'\	p	4d'\	.	8a/	.	8aa\	.
.	.	.	.	8g/	.	8gg\	.
4c'\	.	4c'\	.	8fn/	.	8ffn\	.
.	.	.	.	8e/J)	.	8ee\J)	.
=20	=20	=20	=20	=20	=20	=20	=20
4G'\	.	4B'/	.	4d/	.	4dd\	.
4GG'/	.	4r	.	4r	.	4r	.
4r	.	4r	.	4G'/	f	4g'/	f
=21	=21	=21	=21	=21	=21	=21	=21
4r	.	4r	.	(4c/	.	(4cc\	.
4r	.	4r	.	4e/)	.	4ee\)	.
4c'\	f	4e'\	f	4g'/	.	4gg'\	.
=22	=22	=22	=22	=22	=22	=22	=22
4c'\	.	4e'\	.	4cc'\	.	4ccc'\	.
4c'\	.	4e'\	.	4ee'\	.	4eee'\	.
4c'\	.	4e'\	.	(16dd\LL	.	(16ddd\LL	.
.	.	.	.	16cc\	.	16ccc\	.
.	.	.	.	16b\	.	16bb\	.
.	.	.	.	16a\JJ)	.	16aa\JJ)	.
=23	=23	=23	=23	=23	=23	=23	=23
4B'\	.	4d'\	.	4g'/	.	4gg'\	.
4B'\	.	4d'\	.	4g'/	.	4gg'\	.
4Bz'\	z	4dz'\	z	4fz'/	z	4gg#z'\	z
=24	=24	=24	=24	=24	=24	=24	=24
2A\	.	(4d\	.	(4f/	.	(4gg#\	.
.	.	4c#\)	.	4e/)	.	4aa\)	.
4Az'\	z	4cnz'\	z	4e-z'/	z	4ff#z'\	z
=25	=25	=25	=25	=25	=25	=25	=25
2G\	.	(4c\	.	(4e-/	.	(4ff#\	.
.	.	4B/)	.	4d/)	.	4ggn\)	.
4Gz'\	z	4B-z'/	z	4cz'/	z	4eez'\	z
=26	=26	=26	=26	=26	=26	=26	=26
2F\	.	(4B-/	.	2c/	.	(4ee\	.
.	.	4A/)	.	.	.	4ffn\)	.
4r	.	4r	.	4r	.	4aa'\	.
=27	=27	=27	=27	=27	=27	=27	=27
4r	.	2.r	.	4r	.	(4aa\	.
(4C#/	.	.	.	4r	.	4ee\)	.
4D\)	.	.	.	4a'/	.	4ff'\	.
=28	=28	=28	=28	=28	=28	=28	=28
(4D\	.	4r	.	(4a/	.	(4ff\	.
!	!	! dim.	!	!	!	!	!
4E\	.	4A/	.	4g/	.	4cc#\)	.
! dim.	!	!	!	! dim.	!	! dim.	!
4F\)	.	(8A/L	.	4f/)	.	4dd'\	.
.	.	8Bn/J)	.	.	.	.	.
=29	=29	=29	=29	=29	=29	=29	=29
[2.G\	.	2.c\	.	2.e/	.	2.ccn\	.
=30	=30	=30	=30	=30	=30	=30	=30
2.G\]	<]	(4d\	<	(4f/	<	8b'\L	<
.	.	.	.	.	.	8cc'\	.
.	.	4c\	.	4e/	.	8dd'\	.
.	.	.	.	.	.	8ee'\	.
.	.	4B/)	]	4d/)	]	8ff'\	.
.	.	.	.	.	.	8gg'\J	]
=31	=31	=31	=31	=31	=31	=31	=31
(2.G#\	>	(2.B/	>	(2.d/	>	(2.ff\	>
=32	=32	=32	=32	=32	=32	=32	=32
4A\)	]	4c\)	]	4c/)	]	4ee\)	]
4r	.	4r	.	4r	.	4r	.
4r	.	4r	.	4ee'\	f	4eee'\	f
=33	=33	=33	=33	=33	=33	=33	=33
4r	.	4r	.	(4ee\	.	(4eee\	.
4r	.	4r	.	4b\)	.	4bb\)	.
4e'\	f	4g'\	f	4cc'\	.	4ccc'\	.
=34	=34	=34	=34	=34	=34	=34	=34
(4e\	.	(4g\	.	(4cc\	.	(4ccc\	.
4B\)	.	4d\)	.	4g#/)	.	4gg#\)	.
4c'\	.	4e'\	.	4a'/	.	4aa'\	.
=35	=35	=35	=35	=35	=35	=35	=35
(4G#\	.	(4B/	.	(4e/	.	(4ee\	.
4A\)	.	4c\)	.	4f/)	.	4ff\)	.
4E'\	.	4G'/	.	4c#'/	.	4cc#'\	.
=36	=36	=36	=36	=36	=36	=36	=36
(4F\	>	(4A/	>	(4d/	>	(4dd\	>
4E\	.	4G/	.	4e/	.	4ee\	.
4D\)	]	4F/)	]	4f/)	]	4ff\)	]
=37	=37	=37	=37	=37	=37	=37	=37
2.Gn\	p	2.G/	p	2.e/	p	2.ccn\	p
=38	=38	=38	=38	=38	=38	=38	=38
(2.GG#/	f>]	(2.B/	f>]	[2.d/	f>]	[2.f/	f>]
=39	=39	=39	=39	=39	=39	=39	=39
2.AA/)	.	2.A/)	.	4d/]	.	4f/]	.
.	.	.	.	4c#/	.	4e/	.
.	.	.	.	4d/	.	4f/	.
=40	=40	=40	=40	=40	=40	=40	=40
(2.AA-/	f	(2.e-\	f	[2.cn/	f	(2.f#/	f
=41	=41	=41	=41	=41	=41	=41	=41
2GG/)	.	2en\)	.	2c/]	.	2g/)	.
4GG'/	p	(8g\L	p	(8e/L	p	4B'/	p
.	.	8f\J)	.	8d/J)	.	.	.
=42	=42	=42	=42	=42	=42	=42	=42
4CC'/	.	4e'\	.	4c'/	.	4c'/	.
4r	.	4r	.	4r	.	4r	.
4r	.	(8cc\L	pp	(4ee-\	pp	(4ff#\	pp
.	.	8a\J)	.	.	.	.	.
=43	=43	=43	=43	=43	=43	=43	=43
4r	.	4g\	.	4een\)	.	4gg\)	.
4r	.	4r	.	4r	.	4r	.
4G/ 4GG'/	f	4G'/	f	4f/ 4G'/	f	4b/ 4d'/	f
=44	=44	=44	=44	=44	=44	=44	=44
4C/ 4CC'/	.	4c'\	.	4e/ 4G'/	.	4cc/ 4e'/	.
4r	.	4r	.	4r	.	4r	.
! Fine	!	! Fine	!	! Fine	!	! Fine	!
=:|!	=:|!	=:|!	=:|!	=:|!	=:|!	=:|!	=:|!
*>C	*	*>C	*	*>C	*	*>C	*
*k[b-e-a-]	*	*k[b-e-a-]	*	*k[b-e-a-]	*	*k[b-e-a-]	*
*c:	*	*c:	*	*c:	*	*c:	*
*M3/4	*	*M3/4	*	*M3/4	*	*M3/4	*
! Trio	!	! Trio	!	! Trio	!	! Trio	!
4r	.	4G/	p	4r	.	4r	.
2ryy	.	2ryy	.	2ryy	.	2ryy	.
=45	=45	=45	=45	=45	=45	=45	=45
4C'/	p	(4c\	.	2.r	.	2.r	.
4C'/	.	4e-\)	.	.	.	.	.
4C'/	.	4g'\	.	.	.	.	.
=46	=46	=46	=46	=46	=46	=46	=46
2BB/	.	(4a-\	.	4r	.	4r	.
.	.	4g\)	.	4r	.	4r	.
4r	.	4r	.	4B'/	p	4gg'\	p
=47	=47	=47	=47	=47	=47	=47	=47
2.r	.	2.r	.	(4d/	.	4gg'\	.
.	.	.	.	4f/)	.	4gg'\	.
.	.	.	.	4g'/	.	4gg'\	.
=48	=48	=48	=48	=48	=48	=48	=48
2.r	.	4r	.	(4b\	.	(4ff\	.
.	.	4r	.	4cc\)	.	4ee-\)	.
.	.	4E-/	.	4r	.	4r	.
=49	=49	=49	=49	=49	=49	=49	=49
4AA-'/	.	(4A-/	.	2.r	.	2.r	.
4AA-'/	.	4c\)	.	.	.	.	.
4AA-'/	.	4e-'\	.	.	.	.	.
=50	=50	=50	=50	=50	=50	=50	=50
2GG/	.	(4f\	.	2.r	.	4r	.
.	.	4e-\)	.	.	.	4r	.
4r	.	4r	.	.	.	4e-'/	.
=51	=51	=51	=51	=51	=51	=51	=51
(2.A-\	.	(2.c\	.	[2.e-/	.	(4a-/	.
.	.	.	.	.	.	4cc\)	.
.	.	.	.	.	.	4ee-'\	.
=52	=52	=52	=52	=52	=52	=52	=52
2.G\	.	[2.B-/)	.	(2.e-/]	.	(4ff\	.
.	.	.	.	.	.	4ee-\)	.
.	.	.	.	.	.	4e-'/	.
=53	=53	=53	=53	=53	=53	=53	=53
2.F\)	.	2.B-/]	.	2.d/)	.	(4b-\	.
.	.	.	.	.	.	4a-/)	.
.	.	.	.	.	.	4B-'/	.
=54	=54	=54	=54	=54	=54	=54	=54
(4D\	.	2B-/	.	(4f/	.	(4a-/	.
4E-\)	.	.	.	4e-/)	.	4g/)	.
4AA-'/	.	4A-'/	.	4c'/	.	4f'/	.
=55	=55	=55	=55	=55	=55	=55	=55
(4BB-/	.	(4G/	.	(4B-/	.	(4e-/	.
4C-/)	.	4F/)	.	2A-/)	.	4d/)	.
4BB-'/	.	4D'/	.	.	.	4f'/	.
=56	=56	=56	=56	=56	=56	=56	=56
4E-'\	.	4E-/	.	4G/	.	4e-/	.
4EE-'/	.	4r	.	4r	.	4r	.
4EE-'/	.	4G'/	.	4B-'/	.	4b-'\	.
=57	=57	=57	=57	=57	=57	=57	=57
! cresc.	!	! cresc.	!	! cresc.	!	! cresc.	!
[2.EE-/	.	(4F#/	.	(4A/	.	(4a/	.
.	.	4G/)	.	4B-/)	.	4b-\)	.
.	.	4G'/	.	4Bn/	.	4bn'\	.
=58	=58	=58	=58	=58	=58	=58	=58
2.EE-/_	.	(4G/	.	(4d/	.	(4dd\	.
.	.	4A-/)	.	4c/)	.	4cc\)	.
.	.	4A-'/	.	4c'/	.	8ff'\L	.
.	.	.	.	.	.	8ee-'\J	.
=59	=59	=59	=59	=59	=59	=59	=59
2.EE-/_	mf	(2.A-/	mf	(2.d/	mf	8dd'/L	mf
.	.	.	.	.	.	8cc'/	.
.	.	.	.	.	.	8b-'/	.
.	.	.	.	.	.	8a-'/	.
.	.	.	.	.	.	8g'/	.
.	.	.	.	.	.	8f'/J	.
=60	=60	=60	=60	=60	=60	=60	=60
4EE-/]	.	4G/)	.	4e-/)	.	4e-/	.
4r	.	4r	.	4r	.	4r	.
=:!!:	=:!!:	=:!!:	=:!!:	=:!!:	=:!!:	=:!!:	=:!!:
*>D	*	*>D	*	*>D	*	*>D	*
4B-'\	p	4r	.	4r	.	4r	.
2ryy	.	2ryy	.	2ryy	.	2ryy	.
=61	=61	=61	=61	=61	=61	=61	=61
4A\	.	2.r	.	4r	.	4r	.
4B-\	.	.	.	4r	.	4r	.
4Bn\	.	.	.	[4f/	p	4a-/	p
=62	=62	=62	=62	=62	=62	=62	=62
(4d\	.	2.r	.	4f/]	.	2g/	.
4c\)	.	.	.	4e/	.	.	.
4A'\	.	.	.	[4e-/	.	(8cc/L	.
.	.	.	.	.	.	8g-/J)	.
=63	=63	=63	=63	=63	=63	=63	=63
(4c\	.	2.r	.	4e-/]	.	2f/	.
4B-\)	.	.	.	4d/	.	.	.
4G'\	.	.	.	[4d-/	.	(8b-/L	.
.	.	.	.	.	.	8f/J)	.
=64	=64	=64	=64	=64	=64	=64	=64
(4B-\	.	2.r	.	4d-/]	.	4e-'/	.
4A-\)	.	.	.	4c/	.	4e-'/	.
4F'\	.	.	.	4c/	.	(8a-/L	.
.	.	.	.	.	.	8e-/J)	.
=65	=65	=65	=65	=65	=65	=65	=65
(4A-\	.	2.r	.	2.c/	.	2d/	.
4G\)	.	.	.	.	.	.	.
4F#'\	.	.	.	.	.	4e-/)	.
=66	=66	=66	=66	=66	=66	=66	=66
! cresc.	!	!	!	!	!	!	!
[2.G\	.	4r	.	4B/	.	4d/	.
!	!	! cresc.	!	! cresc.	!	! cresc.	!
.	.	(4B/	.	(4dn/	.	(4g/	.
.	.	4A/)	.	4c/)	.	4f#/)	.
=67	=67	=67	=67	=67	=67	=67	=67
2.G\_	.	(4c\	.	(4e-/	.	(4a/	.
.	.	4B/)	.	4d/)	.	4g/)	.
.	.	4d'\	.	4g'/	.	4b'\	.
=68	=68	=68	=68	=68	=68	=68	=68
4G\]	.	(4e-\	.	(4f#/	.	&(4cc\)	.
4GG/	.	4d\)	.	4g/)	.	4b\&)	.
4r	.	4r	.	4r	.	4g'/	p
=69	=69	=69	=69	=69	=69	=69	=69
2.r	.	2.r	.	4c'/	p	(4cc\	.
.	.	.	.	4c'/	.	4ee-\)	.
.	.	.	.	4c'/	.	4gg'\	.
=70	=70	=70	=70	=70	=70	=70	=70
2.r	.	4r	.	2B/	.	(4aa-\	.
.	.	4r	.	.	.	4gg\)	.
.	.	4g'\	p	4ff'\	.	4ddd'\	.
=71	=71	=71	=71	=71	=71	=71	=71
2.r	.	(4a-\	.	4ff'\	.	4ddd'\	.
.	.	4b\)	.	4ff'\	.	4ddd'\	.
.	.	4dd'\	.	4ff'\	.	4ddd'\	.
=72	=72	=72	=72	=72	=72	=72	=72
4r	.	(4ff\	.	(4aa-\	.	(4bb\	.
4r	.	4ee-\)	.	4gg\)	.	4ccc\)	.
4AA-'/	p	4r	.	4r	.	4r	.
=73	=73	=73	=73	=73	=73	=73	=73
(4C/	.	(2.A-/	.	(2.cc\	.	(2.ff#\	.
4E-\)	.	.	.	.	.	.	.
4F#'\	.	.	.	.	.	.	.
=74	=74	=74	=74	=74	=74	=74	=74
(4G\	.	2.G/)	.	2.b\)	.	2.ffn\)	.
4B\	.	.	.	.	.	.	.
4d\)	.	.	.	.	.	.	.
=75	=75	=75	=75	=75	=75	=75	=75
4c'\	.	4c'\	.	4cc'\	.	4ee-'\	.
4G'\	.	4G'/	.	4c'/	.	4e-'/	.
4GG'/	.	4F'/	.	4B'/	.	(4dT/	.
!	!	!	!	!	!	! 16cP/LL	!
!	!	!	!	!	!	! 16dP/JJ)	!
=76	=76	=76	=76	=76	=76	=76	=76
[2.C/	.	4E-/	.	4c'/	.	4cp'/	.
.	.	4r	.	4r	.	4r	.
.	.	4r	.	4e'/	.	4g'/	.
=77	=77	=77	=77	=77	=77	=77	=77
2.C/_	.	4r	.	(4f/	.	(4a-/	.
.	.	4r	.	4e/)	.	4g/)	.
.	.	4E/	.	4c'/	.	4cc'\	.
=78	=78	=78	=78	=78	=78	=78	=78
2.C/_	.	(2F/	.	(4d-/	.	(4b-\	.
.	.	.	.	4c/)	.	4a-/)	.
.	.	4G/)	.	4c'/	.	4g'/	.
=79	=79	=79	=79	=79	=79	=79	=79
2.C/]	.	(2A-/	.	(2B/	.	(4g/	.
.	.	.	.	.	.	4f/)	.
.	.	4G/)	.	4c/)	.	4e-'/	.
=80	=80	=80	=80	=80	=80	=80	=80
4FF/	.	4F/	.	4A-/	.	(8dn/L	.
.	.	.	.	.	.	8e-/	.
4r	.	4r	.	4r	.	8en/	.
.	.	.	.	.	.	8f/	.
4r	.	4r	.	4r	.	8f#/	.
.	.	.	.	.	.	8g/J)	.
=81	=81	=81	=81	=81	=81	=81	=81
4r	.	4r	.	4r	.	(4a-/	.
4r	.	4r	.	4r	.	4g/)	.
4GG'/	.	4F'/	.	4dn'/	.	4B'/	.
=82	=82	=82	=82	=82	=82	=82	=82
4CC'/	.	4E-'/	.	4c'/	.	4c'/	.
4r	.	4r	.	4r	.	4r	.
! Menuetto D.C.	!	! Menuetto D.C.	!	! Menuetto D.C.	!	! Menuetto D.C.	!
==:|!	==:|!	==:|!	==:|!	==:|!	==:|!	==:|!	==:|!
*-	*-	*-	*-	*-	*-	*-	*-
!!!RWG: Appoggiaturas of spine 'Violino I' need manual editing in measures: 76
!!!RWG: Key is interpreted using the Humdrum key tool.
!!!GTL: 6 Quartetti ("Tost III")
!!!AFT: stage2
!!!END: 1994/11/13
!!!KEY: 2270538497
!!!EMD: Converted from MuseData to Humdrum Dec 16, 2000, by Andreas Kornstaedt using muse2kern.
!!!EMD: Manual editing by Craig Sapp, Nov 2001
